X:768
T:Xiraldilla (CT 091)
R:Xiraldilla
C:Tradicional
S:Msica Tradicional Asturiana, (C) Tello & Tito. Asturies, 2001.
S:http://pagina.de/MusTradAst <telloytito@asturies.org>
N:Xiraldilla, dictada por Manuel Martnez Muiz, de veintiocho aos, de Llamo, ayuntamiento de Riosa.
A:Asturies
O:Llamo (Riosa)
Z:Cancioneru de Torner 091
M:3/8
L:1/8
Q:3/8=88
K:C
|d2 d|d_ed|c2 B|d2 d|d_ed|c2 z|_B2 A|GA_B|A2 G|_B2 A|GGG|G2 z :||
W:Ya se cas Cristina,
W:la reina principal.
W:Ai! amante del alma,
W:cundo te llevarn
W:
W:Mi amante fue a la guerra,
W:no s cuando vendr;
W:la carta que me escribe
W:trai mala noved.
W:
W:Ai! amante del alma,
W:cundo te vuelvo a ver
W:Ai! amante del alma,
W:prenda del mi querer.
W:
